X:9006
T:It Came Upon the Midnight Clear
R:March
C:A Sullivan after Trad.
O:England
Z:Paul Hardy's Xmas Tunebook 2019 (see www.paulhardy.net). Creative Commons cc by-nc-sa licenced.
M:4/4
L:1/8
Q:1/4=120
K:G
GA|"G"B2 A2 "Em"G2 AB|"C"c2 B2 "D"A2 d2|"G"d2 B2 "C"cd e2|"G"d6|
"G"Bc|d2 d2 "Em"B2 G2|"C"c2 B2 "D"A2 GA|"G"Bc d2 "D"B2 A2|"G"G6||
"G"G2|"B7"F2 E2 F2 A2|"Em"G3 F E2 B2|"A7"A2 G2 F2 E2|"D"D6|
"D"D2|"G"d2 c2 "Em"B2 AB|"C"c2 B2 "D"A2 GA|"G"Bc d2 "D"B2 A2|"G"G6|]
W:It came upon the midnight clear,
W:That glorious song of old,
W:From angels bending near the earth,
W:To touch their harps of gold:
W:
W:Peace on the earth, goodwill to men,
W:From heaven's all-gracious King.
W:The world in solemn stillness lay,
W:To hear the angels sing.
W:
W:(Edmund Hamilton Sears, 1849)

